dist/svgs/team-pen.svg

<svg xmlns="http://www.w3.org/2000/svg" viewBox="0 0 512 512"><path d="M200 126l186 186-49 129q-3 11-17 13L31 512l128-129q7 3 13.5 5t14.5 2q27 0 46-19t19-46-19-46-46-19-46 19-19 46q0 8 2 14.5t5 13.5L0 481l58-289q2-14 13-17zm306 97q6 6 6 15t-6 15l-44 44q-6 6-15 6t-15-6L215 80q-6-6-6-15t6-15l44-44q6-6 15-6t15 6z"/></svg>

<?xml version="1.0" encoding="UTF-8" standalone="no"?><svg   xmlns:svg="http://www.w3.org/2000/svg"   xmlns="http://www.w3.org/2000/svg"   version="1.1"   width="512"   height="512"   viewBox="0 0 512 512">  <path     d="M200 126L386 312L337 441Q334 452 320 454L31 512L159 383Q166 386 172.5 388T187 390Q214 390 233 371T252 325T233 279T187 260T141 279T122 325Q122 333 124 339.5T129 353L0 481L58 192Q60 178 71 175zM506 223Q512 229 512 238T506 253L462 297Q456 303 447 303T432 297L215 80Q209 74 209 65T215 50L259 6Q265 0 274 0T289 6z"     id="team-pen" /></svg>
